flaticon/gastronomy/glass-1.svg

<svg xmlns="http://www.w3.org/2000/svg" width="32" height="32" viewBox="0 0 24 24">
    <path d="M14.695312 11.621094C14.695312 11.90625 14.460938 12.140625 14.175781 12.140625 13.886719 12.140625 13.652344 11.90625 13.652344 11.621094 13.652344 11.332031 13.886719 11.097656 14.175781 11.097656 14.460938 11.097656 14.695312 11.332031 14.695312 11.621094zM10.097656 11.390625C10.097656 11.679688 9.863281 11.914062 9.574219 11.914062 9.285156 11.914062 9.054688 11.679688 9.054688 11.390625 9.054688 11.101562 9.285156 10.871094 9.574219 10.871094 9.863281 10.871094 10.097656 11.101562 10.097656 11.390625zM10.097656 11.390625"/>
    <path d="M 20.582031 8.007812 C 21.085938 6.425781 21.058594 4.664062 20.464844 3.035156 C 20.28125 2.523438 19.902344 2.109375 19.425781 1.851562 C 18.652344 0.40625 14.539062 0 12 0 C 9.460938 0 5.347656 0.40625 4.574219 1.851562 C 4.097656 2.109375 3.71875 2.523438 3.535156 3.035156 C 2.941406 4.664062 2.914062 6.425781 3.417969 8.007812 C 3.4375 8.191406 3.5 8.371094 3.613281 8.535156 C 3.667969 8.671875 3.71875 8.8125 3.785156 8.945312 C 5.210938 11.878906 8.015625 13.78125 11.21875 14.050781 L 11.21875 20.355469 C 9.546875 20.390625 5.476562 20.636719 5.476562 22.171875 C 5.476562 23.910156 10.695312 24 11.738281 24 C 12.785156 24 18 23.910156 18 22.171875 C 18 20.636719 13.929688 20.390625 12.261719 20.355469 L 12.261719 14.078125 C 15.679688 13.984375 18.710938 12.039062 20.214844 8.945312 C 20.28125 8.8125 20.332031 8.671875 20.386719 8.535156 C 20.5 8.371094 20.5625 8.191406 20.582031 8.007812 Z M 18.511719 2.332031 L 18.515625 2.355469 C 18.511719 2.371094 18.5 2.386719 18.488281 2.398438 C 18.480469 2.414062 18.476562 2.425781 18.464844 2.441406 C 18.449219 2.457031 18.429688 2.472656 18.410156 2.492188 C 18.390625 2.507812 18.378906 2.523438 18.355469 2.539062 C 18.335938 2.554688 18.304688 2.570312 18.277344 2.589844 C 18.253906 2.605469 18.230469 2.621094 18.199219 2.640625 C 18.171875 2.65625 18.132812 2.671875 18.101562 2.691406 C 18.0625 2.707031 18.03125 2.726562 17.992188 2.746094 C 17.957031 2.761719 17.914062 2.777344 17.875 2.796875 C 17.828125 2.8125 17.789062 2.832031 17.738281 2.851562 C 17.695312 2.867188 17.644531 2.886719 17.597656 2.902344 C 17.542969 2.921875 17.492188 2.941406 17.433594 2.960938 C 17.386719 2.976562 17.328125 2.992188 17.277344 3.007812 C 17.210938 3.027344 17.152344 3.046875 17.085938 3.066406 C 17.027344 3.082031 16.964844 3.097656 16.90625 3.113281 C 16.835938 3.132812 16.765625 3.152344 16.6875 3.167969 C 16.625 3.183594 16.554688 3.199219 16.488281 3.214844 C 16.410156 3.230469 16.332031 3.25 16.25 3.265625 C 16.179688 3.28125 16.101562 3.292969 16.027344 3.308594 C 15.941406 3.324219 15.855469 3.34375 15.765625 3.359375 C 15.683594 3.371094 15.59375 3.382812 15.511719 3.398438 C 15.421875 3.410156 15.332031 3.425781 15.238281 3.4375 C 15.144531 3.453125 15.046875 3.464844 14.949219 3.476562 C 14.855469 3.488281 14.765625 3.5 14.671875 3.511719 C 14.566406 3.523438 14.453125 3.53125 14.339844 3.542969 C 14.25 3.550781 14.160156 3.5625 14.0625 3.570312 C 13.941406 3.578125 13.808594 3.585938 13.683594 3.59375 C 13.59375 3.601562 13.503906 3.609375 13.414062 3.613281 C 13.257812 3.621094 13.09375 3.625 12.933594 3.632812 C 12.863281 3.636719 12.796875 3.636719 12.726562 3.640625 C 12.492188 3.648438 12.25 3.652344 12 3.652344 C 11.75 3.652344 11.507812 3.648438 11.269531 3.640625 C 10.734375 3.628906 10.238281 3.597656 9.773438 3.554688 C 9.40625 3.523438 9.058594 3.484375 8.734375 3.4375 C 8.71875 3.4375 8.707031 3.433594 8.6875 3.429688 C 8.339844 3.382812 8.015625 3.324219 7.722656 3.265625 C 6.332031 2.976562 5.546875 2.597656 5.484375 2.355469 L 5.492188 2.324219 C 5.695312 1.875 8.078125 1.042969 12 1.042969 C 15.9375 1.042969 18.328125 1.882812 18.511719 2.332031 Z M 4.515625 3.390625 C 4.558594 3.269531 4.625 3.15625 4.703125 3.058594 C 4.742188 3.105469 4.792969 3.148438 4.839844 3.195312 C 4.863281 3.21875 4.882812 3.242188 4.910156 3.265625 C 5.097656 3.425781 5.328125 3.570312 5.597656 3.699219 C 5.640625 3.71875 5.683594 3.738281 5.726562 3.757812 C 5.824219 3.800781 5.925781 3.84375 6.03125 3.882812 C 6.085938 3.902344 6.144531 3.921875 6.199219 3.941406 C 6.304688 3.976562 6.40625 4.011719 6.515625 4.042969 C 6.578125 4.0625 6.640625 4.082031 6.703125 4.097656 C 6.8125 4.128906 6.929688 4.160156 7.046875 4.1875 C 7.109375 4.203125 7.171875 4.21875 7.234375 4.230469 C 7.367188 4.261719 7.5 4.289062 7.636719 4.3125 C 7.6875 4.324219 7.738281 4.335938 7.792969 4.34375 C 8.171875 4.414062 8.566406 4.472656 8.964844 4.519531 C 9.023438 4.527344 9.082031 4.53125 9.144531 4.539062 C 9.28125 4.554688 9.417969 4.570312 9.558594 4.582031 C 9.628906 4.589844 9.703125 4.59375 9.773438 4.601562 C 9.898438 4.609375 10.023438 4.621094 10.148438 4.628906 C 10.222656 4.632812 10.296875 4.640625 10.371094 4.644531 C 10.496094 4.652344 10.613281 4.65625 10.734375 4.664062 C 10.804688 4.667969 10.875 4.671875 10.945312 4.671875 C 11.074219 4.679688 11.195312 4.683594 11.320312 4.683594 C 11.375 4.6875 11.433594 4.6875 11.488281 4.691406 C 11.664062 4.695312 11.835938 4.695312 12 4.695312 C 12.164062 4.695312 12.335938 4.695312 12.511719 4.691406 C 12.566406 4.6875 12.625 4.6875 12.679688 4.683594 C 12.804688 4.683594 12.925781 4.679688 13.054688 4.671875 C 13.125 4.671875 13.195312 4.667969 13.265625 4.664062 C 13.386719 4.65625 13.503906 4.652344 13.628906 4.644531 C 13.703125 4.640625 13.777344 4.632812 13.851562 4.628906 C 13.976562 4.621094 14.101562 4.609375 14.226562 4.601562 C 14.296875 4.59375 14.371094 4.589844 14.441406 4.582031 C 14.578125 4.570312 14.714844 4.554688 14.855469 4.539062 C 14.914062 4.53125 14.976562 4.527344 15.039062 4.519531 C 15.433594 4.472656 15.828125 4.414062 16.207031 4.347656 C 16.261719 4.335938 16.316406 4.324219 16.375 4.3125 C 16.503906 4.289062 16.636719 4.261719 16.761719 4.230469 C 16.828125 4.21875 16.894531 4.203125 16.957031 4.1875 C 17.074219 4.160156 17.183594 4.128906 17.292969 4.097656 C 17.359375 4.082031 17.421875 4.0625 17.488281 4.042969 C 17.59375 4.011719 17.695312 3.976562 17.792969 3.945312 C 17.851562 3.925781 17.914062 3.902344 17.972656 3.882812 C 18.074219 3.84375 18.167969 3.804688 18.261719 3.761719 C 18.308594 3.742188 18.359375 3.722656 18.402344 3.699219 C 18.527344 3.640625 18.644531 3.578125 18.753906 3.511719 C 18.761719 3.503906 18.773438 3.5 18.78125 3.496094 C 18.894531 3.425781 18.996094 3.347656 19.085938 3.269531 C 19.117188 3.242188 19.140625 3.214844 19.167969 3.191406 C 19.210938 3.148438 19.257812 3.105469 19.296875 3.058594 C 19.375 3.160156 19.441406 3.269531 19.484375 3.390625 C 19.878906 4.476562 19.988281 5.625 19.820312 6.71875 C 18.367188 5.738281 15.097656 5.277344 12 5.277344 C 8.90625 5.277344 5.636719 5.734375 4.179688 6.71875 C 4.011719 5.625 4.121094 4.476562 4.515625 3.390625 Z M 19.449219 8.078125 C 18.925781 8.601562 16.410156 9.464844 12 9.464844 C 7.589844 9.464844 5.074219 8.601562 4.550781 8.078125 C 4.519531 8 4.488281 7.925781 4.457031 7.847656 C 4.609375 7.355469 7.164062 6.320312 12 6.320312 C 16.832031 6.320312 19.390625 7.355469 19.542969 7.847656 C 19.511719 7.925781 19.480469 8 19.449219 8.078125 Z M 16.875 22.175781 C 16.410156 22.484375 14.65625 22.957031 11.738281 22.957031 C 8.824219 22.957031 7.070312 22.484375 6.605469 22.175781 C 7.039062 21.882812 8.613281 21.449219 11.21875 21.398438 L 11.21875 21.914062 C 11.21875 22.203125 11.449219 22.433594 11.738281 22.433594 C 12.027344 22.433594 12.261719 22.203125 12.261719 21.914062 L 12.261719 21.398438 C 14.863281 21.449219 16.4375 21.882812 16.875 22.175781 Z M 12 13.042969 C 9.335938 13.042969 6.917969 11.769531 5.417969 9.652344 C 7.097656 10.230469 9.601562 10.507812 12 10.507812 C 14.398438 10.507812 16.902344 10.230469 18.585938 9.652344 C 17.082031 11.769531 14.664062 13.042969 12 13.042969 Z M 12 13.042969"/>
</svg>

<svg xmlns="http://www.w3.org/2000/svg" width="32" height="32" viewBox="0 0 24 24">
    <path d="M14.695 11.621a.522.522 0 1 1-1.043-.004.522.522 0 0 1 1.043.004zm0 0M10.098 11.39c0 .29-.235.524-.524.524a.52.52 0 0 1-.52-.523c0-.29.231-.52.52-.52.29 0 .524.23.524.52zm0 0"/>
    <path d="M20.582 8.008a7.728 7.728 0 0 0-.117-4.973 2.206 2.206 0 0 0-1.04-1.183C18.653.406 14.54 0 12 0 9.46 0 5.348.406 4.574 1.852a2.206 2.206 0 0 0-1.039 1.183 7.728 7.728 0 0 0-.117 4.973c.02.183.082.363.195.527.055.137.106.277.172.41a9.066 9.066 0 0 0 7.434 5.106v6.304c-1.672.036-5.742.282-5.742 1.817 0 1.738 5.218 1.828 6.261 1.828C12.785 24 18 23.91 18 22.172c0-1.535-4.07-1.781-5.738-1.817v-6.277a9.06 9.06 0 0 0 7.953-5.133c.066-.133.117-.273.172-.41a1.13 1.13 0 0 0 .195-.527zm-2.07-5.676l.004.023a.101.101 0 0 1-.028.043c-.008.016-.011.028-.023.043l-.055.051c-.02.016-.031.031-.055.047-.02.016-.05.031-.078.05l-.078.052c-.027.015-.066.03-.097.05-.04.016-.07.036-.11.055-.035.016-.078.031-.117.05-.047.017-.086.036-.137.056-.043.015-.093.035-.14.05-.055.02-.106.04-.164.059-.047.016-.106.031-.157.047l-.191.058-.18.047c-.07.02-.14.04-.218.055-.063.016-.133.031-.2.047-.078.015-.156.035-.238.05-.07.016-.148.028-.223.044-.086.015-.172.035-.261.05-.082.012-.172.024-.254.04-.09.011-.18.027-.274.038a6.454 6.454 0 0 1-.289.04l-.277.035c-.106.011-.219.02-.332.031-.09.008-.18.02-.277.027l-.38.024c-.09.008-.18.015-.269.02-.156.007-.32.011-.48.019-.07.004-.137.004-.207.008a21.823 21.823 0 0 1-1.457 0 21.23 21.23 0 0 1-1.497-.086c-.367-.032-.714-.07-1.039-.118-.015 0-.027-.003-.046-.007a15.389 15.389 0 0 1-.965-.164c-1.391-.29-2.176-.668-2.239-.91l.008-.032C5.695 1.875 8.078 1.043 12 1.043c3.938 0 6.328.84 6.512 1.289zM4.516 3.391c.043-.121.109-.235.187-.332.04.046.09.09.137.136.023.024.043.047.07.07a3.143 3.143 0 0 0 .817.493c.097.043.199.086.304.125l.168.058c.106.036.207.07.317.102a7.312 7.312 0 0 0 .719.188c.132.03.265.058.402.082.05.011.101.023.156.03.379.071.773.13 1.172.177.058.007.117.011.18.02.136.015.273.03.414.042.07.008.144.012.214.02.125.007.25.02.375.027.075.004.149.012.223.016.125.007.242.011.363.02.07.003.141.007.211.007.13.008.25.012.375.012.055.003.114.003.168.007.176.004.348.004.512.004.164 0 .336 0 .512-.004.054-.003.113-.003.168-.007.125 0 .246-.004.375-.012.07 0 .14-.004.21-.008.122-.008.239-.012.364-.02.074-.003.148-.011.223-.015.125-.008.25-.02.375-.027.07-.008.144-.012.214-.02.137-.012.274-.027.414-.043.06-.008.122-.012.184-.02.395-.046.79-.105 1.168-.171.055-.012.11-.024.168-.035.129-.024.262-.051.387-.083a6.96 6.96 0 0 0 .531-.133c.066-.015.129-.035.195-.054.106-.031.207-.066.305-.098.059-.02.121-.043.18-.062.101-.04.195-.078.289-.121.047-.02.097-.04.14-.063.125-.058.243-.12.352-.187.008-.008.02-.012.027-.016.114-.07.215-.148.305-.226.031-.028.055-.055.082-.079.043-.043.09-.086.129-.132.078.101.144.21.187.332a6.76 6.76 0 0 1 .336 3.328c-1.453-.98-4.722-1.442-7.82-1.442-3.094 0-6.363.457-7.82 1.442a6.76 6.76 0 0 1 .336-3.328zm14.933 4.687c-.523.524-3.039 1.387-7.449 1.387s-6.926-.863-7.45-1.387c-.03-.078-.062-.152-.093-.23C4.609 7.355 7.164 6.32 12 6.32c4.832 0 7.39 1.035 7.543 1.528l-.094.23zm-2.574 14.098c-.465.308-2.219.781-5.137.781-2.914 0-4.668-.473-5.133-.781.434-.293 2.008-.727 4.614-.778v.516c0 .29.23.52.52.52a.52.52 0 0 0 .523-.52v-.516c2.601.051 4.175.485 4.613.778zM12 13.043a8.018 8.018 0 0 1-6.582-3.39c1.68.577 4.184.855 6.582.855 2.398 0 4.902-.278 6.586-.856A8.03 8.03 0 0 1 12 13.043zm0 0"/>
</svg>
